X:116
T:Goldberg Variations - Aria (BWV 988)
C:Bach, J.S.
M:3/4
L:1/8
Q:1/4=56
K:G
|:D|G4 AB|c2 BA G2|A4 AB|c2 BA G2|
F4 GA|B2 AG F2|E4 FG|A4 G:|

